; HEADER_BLOCK_START
; generated by OrcaSlicer 2.1.1 on 2024-07-11 at 15:32:53
; total layer number: 50
; filament_density: 1.24
; filament_diameter: 1.75
; max_z_height: 10.00
; HEADER_BLOCK_END

; THUMBNAIL_BLOCK_START

;
; THUMBNAIL_BLOCK_END

; THUMBNAIL_BLOCK_START

;
; THUMBNAIL_BLOCK_END

; external perimeters extrusion width = 0.40mm
; perimeters extrusion width = 0.40mm
; infill extrusion width = 0.45mm
; solid infill extrusion width = 0.40mm
; top infill extrusion width = 0.40mm
; first layer extrusion width = 0.50mm

; EXECUTABLE_BLOCK_START
EXCLUDE_OBJECT_DEFINE NAME=120mm_Box_Test.stl_id_0_copy_0 CENTER=90,90 POLYGON=[[30,30],[150,30],[150,150],[30,150],[30,30]]
M73 P0 R70
;TYPE:Custom
G21       ;metric values
G90       ;absolute positioning
M82       ;set extruder to absolute mode
M107      ;start with the fan off
;M851 Z-0.25
G28
;G29
;M851 Z-0.25
G92 E0 ;zero the extruded length
;G1 X0 Y0 Z.2 F7000 ;move to front corner and lower
;G1 X35 Z.2 E35 F800 ;purge 35mm of filament
;G92 E0 ;zero the extruded length again
;G1 F9000
;Put printing message on LCD screen
M117 Printing...
G90
G21
M83 ; use relative distances for extrusion
; filament start gcode
M106 S0
;LAYER_CHANGE
;Z:0.2
;HEIGHT:0.2
;BEFORE_LAYER_CHANGE
;0.2
G92 E0

G1 E-2.2 F1800
;AFTER_LAYER_CHANGE
;0.2
;_SET_FAN_SPEED_CHANGING_LAYER
SET_VELOCITY_LIMIT ACCEL=3000 ACCEL_TO_DECEL=1500
G1 Z.2 F48000
G1 X24.969 Y25.773
G1 Z.2
G1 E2.2 F4800
;TYPE:Skirt
;WIDTH:0.5
G1 F3000
G1 X26.72 Y24.307 E.08507
G1 X30 Y23.429 E.12647
G1 X150 Y23.429 E4.46954
G1 X152.249 Y23.826 E.08507
G1 X154.227 Y24.969 E.08507
G1 X155.693 Y26.72 E.08507
G1 X156.571 Y30 E.12647
G1 X156.571 Y150 E4.46954
G1 X156.174 Y152.249 E.08507
G1 X155.031 Y154.227 E.08507
G1 X153.28 Y155.693 E.08507
G1 X150 Y156.571 E.12647
G1 X30 Y156.571 E4.46954
G1 X27.751 Y156.174 E.08507
G1 X25.773 Y155.031 E.08507
G1 X24.307 Y153.28 E.08507
G1 X23.429 Y150 E.12647
G1 X23.429 Y30 E4.46954
G1 X23.826 Y27.751 E.08507
G1 X24.949 Y25.808 E.08358
G1 X25.357 Y26.055 F48000
G1 F3000
G1 X25.422 Y25.948 E.00463
G1 X27.155 Y24.589 E.08203
G1 X30 Y23.886 E.10916
G1 X150 Y23.886 E4.46954
G1 X152.166 Y24.283 E.08203
G1 X154.052 Y25.422 E.08203
G1 X155.411 Y27.155 E.08203
G1 X156.114 Y30 E.10916
G1 X156.114 Y150 E4.46954
G1 X155.717 Y152.166 E.08203
G1 X154.578 Y154.052 E.08203
G1 X152.845 Y155.411 E.08203
G1 X150 Y156.114 E.10916
G1 X30 Y156.114 E4.46954
G1 X27.834 Y155.717 E.08203
G1 X25.948 Y154.578 E.08203
G1 X24.589 Y152.845 E.08203
G1 X23.886 Y150 E.10916
G1 X23.886 Y30 E4.46954
G1 X24.283 Y27.834 E.08203
G1 X25.337 Y26.089 E.07592
G1 X25.739 Y26.344 F48000
G1 F3000
G1 X25.874 Y26.131 E.00939
G1 X27.586 Y24.884 E.07888
G1 X30 Y24.343 E.09215
G1 X150 Y24.343 E4.46954
G1 X152.08 Y24.74 E.07888
G1 X153.869 Y25.874 E.07888
G1 X155.116 Y27.586 E.07888
G1 X155.657 Y30 E.09215
G1 X155.657 Y150 E4.46954
G1 X155.26 Y152.08 E.07888
G1 X154.126 Y153.869 E.07888
G1 X152.414 Y155.116 E.07888
G1 X150 Y155.657 E.09215
G1 X30 Y155.657 E4.46954
G1 X27.92 Y155.26 E.07888
G1 X26.131 Y154.126 E.07888
G1 X24.884 Y152.414 E.07888
G1 X24.343 Y150 E.09215
G1 X24.343 Y30 E4.46954
G1 X24.74 Y27.92 E.07888
G1 X25.717 Y26.377 E.06801
G1 X26.111 Y26.641 F48000
G1 F3000
G1 X26.325 Y26.322 E.01429
G1 X28.013 Y25.195 E.0756
G1 X30 Y24.8 E.07546
G1 X150 Y24.8 E4.46954
G1 X151.991 Y25.197 E.0756
G1 X153.678 Y26.325 E.0756
G1 X154.805 Y28.013 E.0756
G1 X155.2 Y30 E.07546
G1 X155.2 Y150 E4.46954
G1 X154.803 Y151.991 E.0756
G1 X153.675 Y153.678 E.0756
G1 X151.987 Y154.805 E.0756
G1 X150 Y155.2 E.07546
G1 X30 Y155.2 E4.46954
G1 X28.009 Y154.803 E.0756
G1 X26.322 Y153.675 E.0756
G1 X25.195 Y151.987 E.0756
G1 X24.8 Y150 E.07546
G1 X24.8 Y30 E4.46954
G1 X25.197 Y28.009 E.0756
M73 P1 R70
G1 X26.089 Y26.674 E.05982
G1 X26.474 Y26.947 F48000
G1 F3000
G1 X26.775 Y26.523 E.01936
G1 X28.434 Y25.523 E.07217
G1 X30 Y25.258 E.05915
G1 X150 Y25.258 E4.46954
G1 X151.897 Y25.653 E.07217
G1 X153.477 Y26.775 E.07217
G1 X154.477 Y28.434 E.07217
G1 X154.742 Y30 E.05915
G1 X154.742 Y150 E4.46954
G1 X154.347 Y151.897 E.07217
G1 X153.225 Y153.477 E.07217
G1 X151.566 Y154.477 E.07217
G1 X150 Y154.742 E.05915
G1 X30 Y154.742 E4.46954
G1 X28.103 Y154.347 E.07217
G1 X26.523 Y153.225 E.07217
G1 X25.523 Y151.566 E.07217
G1 X25.258 Y150 E.05915
G1 X25.258 Y30 E4.46954
G1 X25.653 Y28.103 E.07217
G1 X26.451 Y26.98 E.05132
G1 X26.823 Y27.263 F48000
G1 F3000
G1 X27.223 Y26.736 E.02462
G1 X28.848 Y25.872 E.06856
G1 X30 Y25.715 E.04329
G1 X150 Y25.715 E4.46954
G1 X151.798 Y26.11 E.06856
M73 P1 R69
G1 X153.264 Y27.223 E.06856
G1 X154.128 Y28.848 E.06856
G1 X154.285 Y30 E.04329
G1 X154.285 Y150 E4.46954
G1 X153.89 Y151.798 E.06856
G1 X152.777 Y153.264 E.06856
G1 X151.152 Y154.128 E.06856
G1 X150 Y154.285 E.04329
G1 X30 Y154.285 E4.46954
G1 X28.202 Y153.89 E.06856
G1 X26.736 Y152.777 E.06856
G1 X25.872 Y151.152 E.06856
G1 X25.715 Y150 E.04329
G1 X25.715 Y30 E4.46954
G1 X26.11 Y28.202 E.06856
G1 X26.799 Y27.294 E.04245
G1 X27.157 Y27.588 F48000
G1 F3000
G1 X27.669 Y26.963 E.03011
G1 X30 Y26.172 E.09167
G1 X150 Y26.172 E4.46954
G1 X151.693 Y26.566 E.06476
G1 X153.037 Y27.669 E.06476
G1 X153.828 Y30 E.09167
G1 X153.828 Y150 E4.46954
G1 X153.434 Y151.693 E.06476
G1 X152.331 Y153.037 E.06476
G1 X150 Y153.828 E.09167
G1 X30 Y153.828 E4.46954
G1 X28.307 Y153.434 E.06476
G1 X26.963 Y152.331 E.06476
G1 X26.172 Y150 E.09167
G1 X26.172 Y30 E4.46954
G1 X26.566 Y28.307 E.06476
G1 X27.131 Y27.619 E.03316
G1 X27.469 Y27.922 F48000
G1 F3000
G1 X28.113 Y27.206 E.03587
G1 X30 Y26.629 E.07351
G1 X150 Y26.629 E4.46954
G1 X151.582 Y27.023 E.06071
G1 X152.794 Y28.113 E.06071
G1 X153.371 Y30 E.07351
G1 X153.371 Y150 E4.46954
G1 X152.977 Y151.582 E.06071
G1 X151.887 Y152.794 E.06071
G1 X150 Y153.371 E.07351
G1 X30 Y153.371 E4.46954
G1 X28.418 Y152.977 E.06071
G1 X27.206 Y151.887 E.06071
G1 X26.629 Y150 E.07351
G1 X26.629 Y30 E4.46954
G1 X27.023 Y28.418 E.06071
G1 X27.442 Y27.952 E.02335
G1 X27.753 Y28.265 F48000
G1 F3000
G1 X28.552 Y27.471 E.04196
G1 X30 Y27.086 E.0558
G1 X150 Y27.086 E4.46954
G1 X151.462 Y27.479 E.05638
M73 P2 R69
G1 X152.529 Y28.552 E.05638
G1 X152.914 Y30 E.0558
G1 X152.914 Y150 E4.46954
G1 X152.521 Y151.462 E.05638
G1 X151.448 Y152.529 E.05638
G1 X150 Y152.914 E.0558
G1 X30 Y152.914 E4.46954
G1 X28.538 Y152.521 E.05638
G1 X27.471 Y151.448 E.05638
G1 X27.086 Y150 E.0558
G1 X27.086 Y30 E4.46954
G1 X27.479 Y28.538 E.05638
G1 X27.725 Y28.293 E.01293
G1 X28 Y28.612 F48000
G1 F3000
G1 X28.985 Y27.762 E.04847
G1 X30 Y27.543 E.03866
G1 X150 Y27.543 E4.46954
G1 X151.331 Y27.935 E.05169
G1 X152.238 Y28.985 E.05169
G1 X152.457 Y30 E.03866
G1 X152.457 Y150 E4.46954
G1 X152.065 Y151.331 E.05169
G1 X151.015 Y152.238 E.05169
G1 X150 Y152.457 E.03866
G1 X30 Y152.457 E4.46954
G1 X28.669 Y152.065 E.05169
G1 X27.762 Y151.015 E.05169
G1 X27.543 Y150 E.03866
G1 X27.543 Y30 E4.46954
G1 X27.935 Y28.669 E.05169
G1 X27.97 Y28.638 E.00173
; printing object 120mm Box Test.stl id:0 copy 0
G1 E-1.6 F1800
;WIPE_START
G1 F3000
G1 X28.727 Y27.985 E-.6
;WIPE_END
EXCLUDE_OBJECT_START NAME=120mm_Box_Test.stl_id_0_copy_0
G1 Z.4 F48000
G1 X148.836 Y148.836 Z.4
G1 Z.2
G1 E2.2 F4800
;TYPE:Inner wall
;WIDTH:0.499999
G1 F3000
G1 X31.164 Y148.836 E4.38282
G1 X31.164 Y31.164 E4.38282
G1 X148.836 Y31.164 E4.38282
G1 X148.836 Y148.796 E4.38133
G1 X149.293 Y149.293 F48000
M73 P2 R68
G1 F3000
G1 X30.707 Y149.293 E4.41687
G1 X30.707 Y30.707 E4.41687
G1 X149.293 Y30.707 E4.41687
G1 X149.293 Y149.253 E4.41538
G1 X149.75 Y149.75 F48000
;TYPE:Outer wall
G1 F3000
G1 X30.25 Y149.75 E4.45091
G1 X30.25 Y30.25 E4.45091
G1 X149.75 Y30.25 E4.45091
M73 P3 R68
G1 X149.75 Y149.71 E4.44942
G1 E-1.6 F1800
;WIPE_START
G1 F3000
G1 X148.75 Y149.71 E-.6
;WIPE_END
G1 Z.4 F48000
G1 X148.699 Y32.226 Z.4
G1 Z.2
G1 E2.2 F4800
;TYPE:Bottom surface
;WIDTH:0.500467
G1 F6300
G1 X147.979 Y31.507 E.03793
G1 X147.332 Y31.507 E.02413
G1 X148.493 Y32.668 E.0612
G1 X148.493 Y33.315 E.02413
G1 X146.685 Y31.507 E.09532
G1 X146.038 Y31.507 E.02413
G1 X148.493 Y33.962 E.12944
G1 X148.493 Y34.609 E.02413
G1 X145.391 Y31.507 E.16356
G1 X144.744 Y31.507 E.02413
G1 X148.493 Y35.256 E.19767
G1 X148.493 Y35.903 E.02413
G1 X144.097 Y31.507 E.23179
G1 X143.45 Y31.507 E.02413
G1 X148.493 Y36.55 E.26591
G1 X148.493 Y37.197 E.02413
G1 X142.803 Y31.507 E.30003
G1 X142.156 Y31.507 E.02413
G1 X148.493 Y37.844 E.33415
G1 X148.493 Y38.491 E.02413
G1 X141.509 Y31.507 E.36827
G1 X140.862 Y31.507 E.02413
G1 X148.493 Y39.138 E.40239
G1 X148.493 Y39.785 E.02413
G1 X140.215 Y31.507 E.4365
G1 X139.568 Y31.507 E.02413
G1 X148.493 Y40.432 E.47062
G1 X148.493 Y41.08 E.02413
G1 X138.92 Y31.507 E.50474
G1 X138.273 Y31.507 E.02413
G1 X148.493 Y41.727 E.53886
G1 X148.493 Y42.374 E.02413
G1 X137.626 Y31.507 E.57298
G1 X136.979 Y31.507 E.02413
G1 X148.493 Y43.021 E.6071
G1 X148.493 Y43.668 E.02413
G1 X136.332 Y31.507 E.64122
G1 X135.685 Y31.507 E.02413
G1 X148.493 Y44.315 E.67533
G1 X148.493 Y44.962 E.02413
G1 X135.038 Y31.507 E.70945
G1 X134.391 Y31.507 E.02413
G1 X148.493 Y45.609 E.74357
G1 X148.493 Y46.256 E.02413
G1 X133.744 Y31.507 E.77769
G1 X133.097 Y31.507 E.02413
G1 X148.493 Y46.903 E.81181
G1 X148.493 Y47.55 E.02413
G1 X132.45 Y31.507 E.84593
G1 X131.803 Y31.507 E.02413
G1 X148.493 Y48.197 E.88005
G1 X148.493 Y48.844 E.02413
G1 X131.156 Y31.507 E.91417
G1 X130.509 Y31.507 E.02413
G1 X148.493 Y49.491 E.94828
G1 X148.493 Y50.138 E.02413
G1 X129.862 Y31.507 E.9824
G1 X129.214 Y31.507 E.02413
G1 X148.493 Y50.786 E1.01652
G1 X148.493 Y51.433 E.02413
G1 X128.567 Y31.507 E1.05064
G1 X127.92 Y31.507 E.02413
G1 X148.493 Y52.08 E1.08476
G1 X148.493 Y52.727 E.02413
G1 X127.273 Y31.507 E1.11888
G1 X126.626 Y31.507 E.02413
G1 X148.493 Y53.374 E1.153
G1 X148.493 Y54.021 E.02413
G1 X125.979 Y31.507 E1.18711
G1 X125.332 Y31.507 E.02413
G1 X148.493 Y54.668 E1.22123
G1 X148.493 Y55.315 E.02413
G1 X124.685 Y31.507 E1.25535
G1 X124.038 Y31.507 E.02413
G1 X148.493 Y55.962 E1.28947
G1 X148.493 Y56.609 E.02413
G1 X123.391 Y31.507 E1.32359
G1 X122.744 Y31.507 E.02413
G1 X148.493 Y57.256 E1.35771
G1 X148.493 Y57.903 E.02413
G1 X122.097 Y31.507 E1.39183
G1 X121.45 Y31.507 E.02413
G1 X148.493 Y58.55 E1.42594
G1 X148.493 Y59.197 E.02413
G1 X120.803 Y31.507 E1.46006
G1 X120.155 Y31.507 E.02413
G1 X148.493 Y59.845 E1.49418
G1 X148.493 Y60.492 E.02413
G1 X119.508 Y31.507 E1.5283
G1 X118.861 Y31.507 E.02413
G1 X148.493 Y61.139 E1.56242
G1 X148.493 Y61.786 E.02413
G1 X118.214 Y31.507 E1.59654
G1 X117.567 Y31.507 E.02413
G1 X148.493 Y62.433 E1.63066
G1 X148.493 Y63.08 E.02413
G1 X116.92 Y31.507 E1.66477
G1 X116.273 Y31.507 E.02413
G1 X148.493 Y63.727 E1.69889
G1 X148.493 Y64.374 E.02413
G1 X115.626 Y31.507 E1.73301
G1 X114.979 Y31.507 E.02413
G1 X148.493 Y65.021 E1.76713
G1 X148.493 Y65.668 E.02413
G1 X114.332 Y31.507 E1.80125
G1 X113.685 Y31.507 E.02413
G1 X148.493 Y66.315 E1.83537
G1 X148.493 Y66.962 E.02413
G1 X113.038 Y31.507 E1.86949
G1 X112.391 Y31.507 E.02413
G1 X148.493 Y67.609 E1.90361
G1 X148.493 Y68.256 E.02413
G1 X111.744 Y31.507 E1.93772
G1 X111.096 Y31.507 E.02413
G1 X148.493 Y68.904 E1.97184
G1 X148.493 Y69.551 E.02413
G1 X110.449 Y31.507 E2.00596
G1 X109.802 Y31.507 E.02413
G1 X148.493 Y70.198 E2.04008
G1 X148.493 Y70.845 E.02413
G1 X109.155 Y31.507 E2.0742
G1 X108.508 Y31.507 E.02413
G1 X148.493 Y71.492 E2.10832
G1 X148.493 Y72.139 E.02413
G1 X107.861 Y31.507 E2.14244
G1 X107.214 Y31.507 E.02413
G1 X148.493 Y72.786 E2.17655
G1 X148.493 Y73.433 E.02413
G1 X106.567 Y31.507 E2.21067
G1 X105.92 Y31.507 E.02413
G1 X148.493 Y74.08 E2.24479
G1 X148.493 Y74.727 E.02413
G1 X105.273 Y31.507 E2.27891
G1 X104.626 Y31.507 E.02413
G1 X148.493 Y75.374 E2.31303
G1 X148.493 Y76.021 E.02413
G1 X103.979 Y31.507 E2.34715
G1 X103.332 Y31.507 E.02413
G1 X148.493 Y76.668 E2.38127
G1 X148.493 Y77.315 E.02413
G1 X102.685 Y31.507 E2.41538
G1 X102.038 Y31.507 E.02413
G1 X148.493 Y77.962 E2.4495
G1 X148.493 Y78.61 E.02413
G1 X101.39 Y31.507 E2.48362
G1 X100.743 Y31.507 E.02413
G1 X148.493 Y79.257 E2.51774
G1 X148.493 Y79.904 E.02413
G1 X100.096 Y31.507 E2.55186
G1 X99.449 Y31.507 E.02413
G1 X148.493 Y80.551 E2.58598
G1 X148.493 Y81.198 E.02413
G1 X98.802 Y31.507 E2.6201
G1 X98.155 Y31.507 E.02413
G1 X148.493 Y81.845 E2.65421
G1 X148.493 Y82.492 E.02413
G1 X97.508 Y31.507 E2.68833
G1 X96.861 Y31.507 E.02413
G1 X148.493 Y83.139 E2.72245
G1 X148.493 Y83.786 E.02413
G1 X96.214 Y31.507 E2.75657
G1 X95.567 Y31.507 E.02413
G1 X148.493 Y84.433 E2.79069
G1 X148.493 Y85.08 E.02413
G1 X94.92 Y31.507 E2.82481
G1 X94.273 Y31.507 E.02413
M73 P4 R68
G1 X148.493 Y85.727 E2.85893
G1 X148.493 Y86.374 E.02413
G1 X93.626 Y31.507 E2.89305
G1 X92.979 Y31.507 E.02413
G1 X148.493 Y87.021 E2.92716
G1 X148.493 Y87.669 E.02413
G1 X92.331 Y31.507 E2.96128
G1 X91.684 Y31.507 E.02413
G1 X148.493 Y88.316 E2.9954
G1 X148.493 Y88.963 E.02413
G1 X91.037 Y31.507 E3.02952
G1 X90.39 Y31.507 E.02413
M73 P4 R67
G1 X148.493 Y89.61 E3.06364
G1 X148.493 Y90.257 E.02413
G1 X89.743 Y31.507 E3.09776
G1 X89.096 Y31.507 E.02413
G1 X148.493 Y90.904 E3.13188
G1 X148.493 Y91.551 E.02413
G1 X88.449 Y31.507 E3.16599
G1 X87.802 Y31.507 E.02413
G1 X148.493 Y92.198 E3.20011
G1 X148.493 Y92.845 E.02413
G1 X87.155 Y31.507 E3.23423
G1 X86.508 Y31.507 E.02413
G1 X148.493 Y93.492 E3.26835
G1 X148.493 Y94.139 E.02413
G1 X85.861 Y31.507 E3.30247
G1 X85.214 Y31.507 E.02413
G1 X148.493 Y94.786 E3.33659
G1 X148.493 Y95.433 E.02413
G1 X84.567 Y31.507 E3.37071
G1 X83.92 Y31.507 E.02413
G1 X148.493 Y96.08 E3.40482
G1 X148.493 Y96.727 E.02413
G1 X83.273 Y31.507 E3.43894
G1 X82.625 Y31.507 E.02413
G1 X148.493 Y97.375 E3.47306
G1 X148.493 Y98.022 E.02413
G1 X81.978 Y31.507 E3.50718
G1 X81.331 Y31.507 E.02413
G1 X148.493 Y98.669 E3.5413
G1 X148.493 Y99.316 E.02413
G1 X80.684 Y31.507 E3.57542
G1 X80.037 Y31.507 E.02413
G1 X148.493 Y99.963 E3.60954
G1 X148.493 Y100.61 E.02413
G1 X79.39 Y31.507 E3.64366
G1 X78.743 Y31.507 E.02413
G1 X148.493 Y101.257 E3.67777
G1 X148.493 Y101.904 E.02413
G1 X78.096 Y31.507 E3.71189
G1 X77.449 Y31.507 E.02413
G1 X148.493 Y102.551 E3.74601
G1 X148.493 Y103.198 E.02413
G1 X76.802 Y31.507 E3.78013
G1 X76.155 Y31.507 E.02413
G1 X148.493 Y103.845 E3.81425
G1 X148.493 Y104.492 E.02413
G1 X75.508 Y31.507 E3.84837
G1 X74.861 Y31.507 E.02413
G1 X148.493 Y105.139 E3.88249
G1 X148.493 Y105.786 E.02413
G1 X74.214 Y31.507 E3.9166
G1 X73.566 Y31.507 E.02413
G1 X148.493 Y106.434 E3.95072
G1 X148.493 Y107.081 E.02413
G1 X72.919 Y31.507 E3.98484
G1 X72.272 Y31.507 E.02413
G1 X148.493 Y107.728 E4.01896
G1 X148.493 Y108.375 E.02413
G1 X71.625 Y31.507 E4.05308
G1 X70.978 Y31.507 E.02413
G1 X148.493 Y109.022 E4.0872
G1 X148.493 Y109.669 E.02413
G1 X70.331 Y31.507 E4.12132
G1 X69.684 Y31.507 E.02413
G1 X148.493 Y110.316 E4.15543
G1 X148.493 Y110.963 E.02413
G1 X69.037 Y31.507 E4.18955
G1 X68.39 Y31.507 E.02413
G1 X148.493 Y111.61 E4.22367
G1 X148.493 Y112.257 E.02413
G1 X67.743 Y31.507 E4.25779
G1 X67.096 Y31.507 E.02413
G1 X148.493 Y112.904 E4.29191
G1 X148.493 Y113.551 E.02413
M73 P5 R67
G1 X66.449 Y31.507 E4.32603
G1 X65.802 Y31.507 E.02413
G1 X148.493 Y114.198 E4.36015
G1 X148.493 Y114.845 E.02413
G1 X65.155 Y31.507 E4.39426
G1 X64.508 Y31.507 E.02413
G1 X148.493 Y115.492 E4.42838
G1 X148.493 Y116.14 E.02413
G1 X63.86 Y31.507 E4.4625
G1 X63.213 Y31.507 E.02413
G1 X148.493 Y116.787 E4.49662
G1 X148.493 Y117.434 E.02413
G1 X62.566 Y31.507 E4.53074
G1 X61.919 Y31.507 E.02413
G1 X148.493 Y118.081 E4.56486
G1 X148.493 Y118.728 E.02413
G1 X61.272 Y31.507 E4.59898
G1 X60.625 Y31.507 E.02413
G1 X148.493 Y119.375 E4.6331
G1 X148.493 Y120.022 E.02413
G1 X59.978 Y31.507 E4.66721
G1 X59.331 Y31.507 E.02413
G1 X148.493 Y120.669 E4.70133
G1 X148.493 Y121.316 E.02413
G1 X58.684 Y31.507 E4.73545
G1 X58.037 Y31.507 E.02413
G1 X148.493 Y121.963 E4.76957
G1 X148.493 Y122.61 E.02413
G1 X57.39 Y31.507 E4.80369
G1 X56.743 Y31.507 E.02413
G1 X148.493 Y123.257 E4.83781
G1 X148.493 Y123.904 E.02413
G1 X56.096 Y31.507 E4.87193
G1 X55.449 Y31.507 E.02413
G1 X148.493 Y124.551 E4.90604
G1 X148.493 Y125.199 E.02413
G1 X54.801 Y31.507 E4.94016
G1 X54.154 Y31.507 E.02413
M73 P5 R66
